public/assets/images/about/icons/11.svg

<svg width="60" height="60" viewBox="0 0 60 60" fill="none" xmlns="http://www.w3.org/2000/svg">
<path d="M14.2781 16.443L10.8469 19.8742L9.825 18.8523C9.46875 18.4961 8.89687 18.4961 8.54063 18.8523C8.18438 19.2086 8.18438 19.7805 8.54063 20.1367L10.2094 21.8055C10.3781 21.9742 10.6125 22.068 10.8563 22.068C11.1 22.068 11.325 21.9742 11.5031 21.8055L15.5719 17.7273C15.9281 17.3711 15.9281 16.7992 15.5719 16.443C15.2063 16.0867 14.625 16.0867 14.2781 16.443Z" fill="#615EFC"/>
<path d="M18.9375 20.0258H38.2594C38.7656 20.0258 39.1688 19.6227 39.1688 19.1164C39.1688 18.6102 38.7656 18.207 38.2594 18.207H18.9375C18.4313 18.207 18.0281 18.6102 18.0281 19.1164C18.0281 19.6227 18.4406 20.0258 18.9375 20.0258Z" fill="#615EFC"/>
<path d="M14.2781 26.7008L10.8469 30.132L9.825 29.1102C9.46875 28.7539 8.89687 28.7539 8.54063 29.1102C8.18438 29.4664 8.18438 30.0383 8.54063 30.3945L10.2094 32.0633C10.3781 32.232 10.6125 32.3258 10.8563 32.3258C11.1 32.3258 11.325 32.232 11.5031 32.0633L15.5719 27.9852C15.9281 27.6289 15.9281 27.057 15.5719 26.7008C15.2063 26.3445 14.625 26.3445 14.2781 26.7008Z" fill="#615EFC"/>
<path d="M18.9376 30.2816H32.8032C33.3095 30.2816 33.7126 29.8785 33.7126 29.3723C33.7126 28.866 33.3095 28.4629 32.8032 28.4629H18.9376C18.4314 28.4629 18.0282 28.866 18.0282 29.3723C18.0282 29.8785 18.4407 30.2816 18.9376 30.2816Z" fill="#615EFC"/>
<path d="M14.278 36.9566L10.8468 40.3879L9.82491 39.366C9.46866 39.0098 8.89678 39.0098 8.54053 39.366C8.18428 39.7223 8.18428 40.2941 8.54053 40.6504L10.2093 42.3191C10.378 42.4879 10.6124 42.5816 10.8562 42.5816C11.0999 42.5816 11.3249 42.4879 11.503 42.3191L15.5718 38.241C15.928 37.8848 15.928 37.3129 15.5718 36.9566C15.2062 36.6004 14.6249 36.6004 14.278 36.9566Z" fill="#615EFC"/>
<path d="M18.9375 40.5375H27.3469C27.8531 40.5375 28.2563 40.1344 28.2563 39.6281C28.2563 39.1219 27.8531 38.7188 27.3469 38.7188H18.9375C18.4313 38.7188 18.0281 39.1219 18.0281 39.6281C18.0281 40.1344 18.4406 40.5375 18.9375 40.5375Z" fill="#615EFC"/>
<path d="M14.2781 47.2125L10.8469 50.6438L9.825 49.6219C9.46875 49.2656 8.89687 49.2656 8.54063 49.6219C8.18438 49.9781 8.18438 50.55 8.54063 50.9062L10.2094 52.575C10.3781 52.7438 10.6125 52.8375 10.8563 52.8375C11.1 52.8375 11.325 52.7438 11.5031 52.575L15.5719 48.4969C15.9281 48.1406 15.9281 47.5688 15.5719 47.2125C15.2063 46.8562 14.625 46.8562 14.2781 47.2125Z" fill="#615EFC"/>
<path d="M30.0751 48.9746H18.9376C18.4314 48.9746 18.0282 49.3777 18.0282 49.884C18.0282 50.3902 18.4314 50.7934 18.9376 50.7934H30.0751C30.5814 50.7934 30.9845 50.3902 30.9845 49.884C30.9845 49.3777 30.5814 48.9746 30.0751 48.9746Z" fill="#615EFC"/>
<path d="M57.075 43.5844L55.8281 43.05C56.0531 41.7844 56.0719 40.4813 55.8844 39.2156L57.1406 38.7188C57.6094 38.5312 57.8344 38.0063 57.6469 37.5375L56.3344 34.2469C56.2406 34.0219 56.0719 33.8438 55.8469 33.75C55.6219 33.6562 55.3781 33.6562 55.1531 33.7406L53.8969 34.2375C53.1656 33.1875 52.2563 32.25 51.2156 31.4906L51.75 30.2437C51.8438 30.0187 51.8531 29.775 51.7594 29.55C51.6656 29.325 51.4969 29.1469 51.2719 29.0531L48.0188 27.6562C47.5594 27.4594 47.025 27.675 46.8281 28.1344L46.2938 29.3813C45.9094 29.3156 45.525 29.2688 45.1406 29.2406V9.38438C45.1406 7.88438 43.9125 6.65625 42.4125 6.65625H36.5625C36.0188 5.01562 34.4906 3.825 32.6719 3.825H28.3688C27.9469 1.65 26.0156 0 23.7188 0C21.4219 0 19.4906 1.65 19.0688 3.825H14.7656C12.9469 3.825 11.4188 5.01562 10.875 6.65625H5.01563C3.51563 6.65625 2.28751 7.88438 2.28751 9.38438V57.2719C2.28751 58.7719 3.50626 60 5.01563 60H42.4125C43.9125 60 45.1406 58.7812 45.1406 57.2719V52.725C45.4219 52.7063 45.7125 52.6781 45.9938 52.6312L46.4906 53.8875C46.6313 54.2437 46.9781 54.4594 47.3344 54.4594C47.4469 54.4594 47.5594 54.4406 47.6719 54.3937L50.9625 53.0812C51.4313 52.8937 51.6563 52.3688 51.4688 51.9L50.9719 50.6437C52.0219 49.9125 52.9594 49.0031 53.7188 47.9719L54.9656 48.5063C55.425 48.7031 55.9594 48.4875 56.1563 48.0281L57.5531 44.775C57.6469 44.55 57.6563 44.3063 57.5625 44.0812C57.4688 43.8563 57.3 43.6781 57.075 43.5844ZM14.7656 5.64375H19.8844C20.3906 5.64375 20.7938 5.24063 20.7938 4.73438C20.7938 3.12188 22.1063 1.81875 23.7094 1.81875C25.3219 1.81875 26.625 3.13125 26.625 4.73438C26.625 5.24063 27.0281 5.64375 27.5344 5.64375H32.6531C33.9188 5.64375 34.95 6.675 34.95 7.94063V8.69063H12.45V7.94063C12.4688 6.675 13.5 5.64375 14.7656 5.64375ZM42.4125 58.1813H5.01563C4.51876 58.1813 4.10626 57.7687 4.10626 57.2719V9.38438C4.10626 8.8875 4.51876 8.475 5.01563 8.475H10.65V9.6C10.65 10.1062 11.0531 10.5094 11.5594 10.5094H35.8781C36.3844 10.5094 36.7875 10.1062 36.7875 9.6V8.475H42.4125C42.9094 8.475 43.3219 8.8875 43.3219 9.38438V29.2219C43.0313 29.2406 42.75 29.2688 42.4688 29.3156L41.9719 28.0594C41.7844 27.5906 41.2594 27.3656 40.7906 27.5531L37.5 28.8656C37.275 28.9594 37.0969 29.1281 37.0031 29.3531C36.9094 29.5781 36.9094 29.8219 36.9938 30.0469L37.4906 31.3031C36.4406 32.0344 35.5031 32.9437 34.7438 33.9844L33.4969 33.45C33.2719 33.3563 33.0281 33.3562 32.8031 33.4406C32.5781 33.5344 32.4 33.7031 32.3063 33.9281L30.9094 37.1813C30.7125 37.6406 30.9281 38.175 31.3875 38.3719L32.6344 38.9062C32.4094 40.1719 32.3906 41.475 32.5875 42.7406L31.3313 43.2375C31.1063 43.3312 30.9281 43.5 30.8344 43.725C30.7406 43.95 30.7406 44.1938 30.825 44.4188L32.1375 47.7094C32.325 48.1781 32.85 48.4031 33.3188 48.2156L34.575 47.7188C35.3063 48.7688 36.2156 49.6969 37.2563 50.4656L36.7219 51.7125C36.525 52.1719 36.7406 52.7062 37.2 52.9031L40.4531 54.3C40.6781 54.3937 40.9219 54.4031 41.1469 54.3094C41.3719 54.2156 41.55 54.0469 41.6438 53.8219L42.1781 52.575C42.5625 52.6406 42.9469 52.6875 43.3406 52.7156V57.2625C43.3219 57.7781 42.9094 58.1813 42.4125 58.1813ZM53.9719 38.8406C54.3 40.3219 54.2813 41.8875 53.9063 43.3594C53.7938 43.7906 54.0188 44.2406 54.4313 44.4188L55.5281 44.8875L54.8438 46.4719L53.7469 46.0031C53.3344 45.825 52.8656 45.975 52.6219 46.35C51.8063 47.6344 50.6813 48.7219 49.3781 49.5094C48.9938 49.7438 48.8344 50.2125 49.0031 50.625L49.4438 51.7313L47.8406 52.3688L47.4 51.2625C47.2594 50.9156 46.9219 50.6906 46.5563 50.6906C46.4906 50.6906 46.425 50.7 46.3594 50.7094C44.8688 51.0375 43.3125 51.0187 41.8313 50.6437C41.4 50.5312 40.95 50.7563 40.7719 51.1688L40.3125 52.275L38.7281 51.5906L39.1969 50.4938C39.375 50.0812 39.225 49.6125 38.85 49.3688C37.5563 48.5438 36.4688 47.4188 35.6906 46.125C35.4656 45.7406 34.9875 45.5812 34.575 45.75L33.4688 46.1906L32.8313 44.5875L33.9375 44.1469C34.35 43.9781 34.5844 43.5375 34.4906 43.1063C34.1625 41.6063 34.1813 40.0781 34.5469 38.5781C34.65 38.1469 34.4344 37.6969 34.0219 37.5281L32.925 37.0594L33.6 35.475L34.6969 35.9437C35.1094 36.1219 35.5875 35.9719 35.8219 35.5969C36.6375 34.3125 37.7531 33.225 39.0563 32.4375C39.4406 32.2031 39.6 31.7344 39.4313 31.3219L38.9906 30.225L40.5938 29.5875L41.0344 30.6844C41.2031 31.0969 41.6438 31.3312 42.075 31.2375C43.5563 30.9094 45.1219 30.9281 46.6031 31.3031C47.0344 31.4156 47.4844 31.1906 47.6625 30.7781L48.1313 29.6812L49.7156 30.3656L49.2469 31.4625C49.0688 31.875 49.2188 32.3531 49.5938 32.5875C50.8781 33.4031 51.975 34.5187 52.7531 35.8219C52.9781 36.2062 53.4563 36.3656 53.8688 36.1969L54.975 35.7562L55.6125 37.3594L54.5063 37.8C54.1031 37.9688 53.8688 38.4094 53.9719 38.8406Z" fill="#615EFC"/>
<path d="M47.3719 33.6742C45.4219 32.8304 43.2563 32.8023 41.2875 33.5898C37.2094 35.2117 35.2219 39.8523 36.8438 43.921C38.0813 47.0335 41.0813 48.9273 44.2406 48.9273C45.2156 48.9273 46.2188 48.7492 47.175 48.3648C51.2531 46.7429 53.2406 42.1023 51.6188 38.0335C50.8313 36.0554 49.3219 34.5085 47.3719 33.6742ZM46.5 46.6773C43.3594 47.9335 39.7781 46.396 38.5313 43.2554C37.275 40.1148 38.8125 36.5335 41.9531 35.2867C42.6938 34.9867 43.4625 34.846 44.2219 34.846C46.6594 34.846 48.975 36.3085 49.9313 38.7085C51.1781 41.8492 49.65 45.421 46.5 46.6773Z" fill="#615EFC"/>
</svg>

<svg xmlns="http://www.w3.org/2000/svg" width="60" height="60" fill="none" viewBox="0 0 60 60"><path fill="#615efc" d="m14.278 16.443-3.431 3.431-1.022-1.022a.905.905 0 0 0-1.284 0 .905.905 0 0 0 0 1.285l1.668 1.668a.93.93 0 0 0 1.294 0l4.069-4.078a.905.905 0 0 0 0-1.284.917.917 0 0 0-1.294 0m4.66 3.583h19.321c.507 0 .91-.403.91-.91a.904.904 0 0 0-.91-.909H18.938a.91.91 0 0 0 0 1.819m-4.66 6.674-3.431 3.432-1.022-1.022a.905.905 0 0 0-1.284 0 .905.905 0 0 0 0 1.285l1.668 1.668a.93.93 0 0 0 1.294 0l4.069-4.078a.905.905 0 0 0 0-1.284.917.917 0 0 0-1.294 0m4.66 3.581h13.865c.507 0 .91-.404.91-.91a.904.904 0 0 0-.91-.91H18.938a.91.91 0 0 0 0 1.819m-4.66 6.676-3.431 3.43-1.022-1.021a.905.905 0 0 0-1.284 0 .905.905 0 0 0 0 1.284l1.668 1.67a.93.93 0 0 0 1.294 0l4.069-4.079a.905.905 0 0 0 0-1.284.917.917 0 0 0-1.294 0m4.66 3.581h8.409c.506 0 .91-.404.91-.91a.904.904 0 0 0-.91-.91h-8.41a.91.91 0 0 0 0 1.819m-4.659 6.676-3.431 3.43-1.022-1.021a.905.905 0 0 0-1.284 0 .905.905 0 0 0 0 1.284l1.668 1.669a.93.93 0 0 0 1.294 0l4.069-4.078a.905.905 0 0 0 0-1.285.917.917 0 0 0-1.294 0m15.797 1.763H18.938a.904.904 0 0 0-.91.909c0 .506.403.91.91.91h11.137c.506 0 .91-.404.91-.91a.904.904 0 0 0-.91-.91"/><path fill="#615efc" d="m57.075 43.584-1.247-.534c.225-1.266.244-2.569.056-3.834l1.257-.497a.905.905 0 0 0 .506-1.181l-1.313-3.291a.9.9 0 0 0-.487-.497.93.93 0 0 0-.694-.01l-1.256.497a11.7 11.7 0 0 0-2.681-2.746l.534-1.247a.905.905 0 0 0-.478-1.19l-3.253-1.398a.91.91 0 0 0-1.19.478l-.535 1.247a12 12 0 0 0-1.153-.14V9.384c0-1.5-1.228-2.728-2.728-2.728h-5.85c-.544-1.64-2.072-2.831-3.891-2.831h-4.303A4.75 4.75 0 0 0 23.719 0a4.75 4.75 0 0 0-4.65 3.825h-4.303c-1.82 0-3.347 1.19-3.891 2.831h-5.86a2.737 2.737 0 0 0-2.727 2.728v47.888A2.73 2.73 0 0 0 5.016 60h37.397a2.73 2.73 0 0 0 2.728-2.728v-4.547a9 9 0 0 0 .853-.094l.497 1.257a.91.91 0 0 0 1.18.506l3.291-1.313a.905.905 0 0 0 .507-1.181l-.497-1.256a11.8 11.8 0 0 0 2.747-2.672l1.247.534a.91.91 0 0 0 1.19-.478l1.397-3.253a.905.905 0 0 0-.478-1.19m-42.31-37.94h5.12a.904.904 0 0 0 .909-.91 2.92 2.92 0 0 1 2.915-2.915 2.92 2.92 0 0 1 2.916 2.915c0 .507.403.91.91.91h5.118A2.3 2.3 0 0 1 34.95 7.94v.75h-22.5v-.75a2.33 2.33 0 0 1 2.316-2.297M42.414 58.18H5.016a.916.916 0 0 1-.91-.91V9.385c0-.497.413-.909.91-.909h5.634V9.6c0 .506.403.91.91.91h24.318c.506 0 .91-.404.91-.91V8.475h5.625c.496 0 .909.412.909.91v19.837c-.29.019-.572.047-.853.094l-.497-1.257a.905.905 0 0 0-1.181-.506L37.5 28.866a.9.9 0 0 0-.497.487.94.94 0 0 0-.01.694l.498 1.256a11.7 11.7 0 0 0-2.747 2.681l-1.247-.534a.94.94 0 0 0-.694-.01.9.9 0 0 0-.497.488l-1.397 3.253a.91.91 0 0 0 .479 1.19l1.246.535a11.7 11.7 0 0 0-.047 3.835l-1.256.496a.9.9 0 0 0-.497.488.93.93 0 0 0-.009.694l1.313 3.29a.905.905 0 0 0 1.18.507l1.257-.497a11.8 11.8 0 0 0 2.681 2.747l-.534 1.246a.91.91 0 0 0 .478 1.191l3.253 1.397a.905.905 0 0 0 1.19-.478l.535-1.247c.385.066.769.112 1.163.14v4.547a.94.94 0 0 1-.928.92m11.559-19.34a9.8 9.8 0 0 1-.066 4.518.91.91 0 0 0 .525 1.06l1.097.469-.684 1.584-1.097-.469a.91.91 0 0 0-1.125.347 9.95 9.95 0 0 1-3.244 3.16.904.904 0 0 0-.375 1.115l.44 1.106-1.602.638-.441-1.106a.915.915 0 0 0-1.04-.554 9.85 9.85 0 0 1-4.529-.065.91.91 0 0 0-1.06.525l-.459 1.106-1.584-.684.469-1.097a.91.91 0 0 0-.347-1.125 9.95 9.95 0 0 1-3.16-3.244.9.9 0 0 0-1.115-.375l-1.106.44-.638-1.602 1.106-.441a.92.92 0 0 0 .554-1.04 10 10 0 0 1 .056-4.529.9.9 0 0 0-.525-1.05l-1.097-.469.675-1.584 1.097.469a.904.904 0 0 0 1.125-.347 9.9 9.9 0 0 1 3.234-3.16.904.904 0 0 0 .375-1.115l-.44-1.097 1.603-.638.44 1.097a.92.92 0 0 0 1.041.553 9.86 9.86 0 0 1 4.528.066.91.91 0 0 0 1.06-.525l.468-1.097 1.585.685-.47 1.096a.904.904 0 0 0 .348 1.125 9.8 9.8 0 0 1 3.16 3.235.9.9 0 0 0 1.115.375l1.106-.44.637 1.602-1.106.441a.91.91 0 0 0-.534 1.04"/><path fill="#615efc" d="M47.372 33.674a7.87 7.87 0 0 0-6.084-.084c-4.079 1.622-6.066 6.262-4.444 10.331 1.237 3.112 4.237 5.006 7.397 5.006.975 0 1.978-.178 2.934-.562 4.078-1.622 6.066-6.263 4.444-10.332a7.88 7.88 0 0 0-4.247-4.359M46.5 46.677c-3.14 1.257-6.722-.281-7.969-3.422-1.256-3.14.282-6.722 3.422-7.968.74-.3 1.51-.441 2.269-.441a6.15 6.15 0 0 1 5.71 3.863 6.14 6.14 0 0 1-3.432 7.968"/></svg>
